**kern	**text	**kern	**text	**kern	**text	**kern	**text	**kern	**text
*staff5	*staff5	*staff4	*staff4	*staff3	*staff3	*staff2	*staff2	*staff1	*staff1
=1-	=1-	=1-	=1-	=1-	=1-	=1-	=1-	=1-	=1-
*clefF4	*	*clefGv2	*	*clefGv2	*	*clefGv2	*	*clefG2	*
*k[b-]	*	*k[b-]	*	*k[b-]	*	*k[b-]	*	*k[b-]	*
*M4/4	*	*M4/4	*	*M4/4	*	*M4/4	*	*M4/4	*
2r	.	2c\	T'a-	1r	.	1r	.	1r	.
2F\	T'a	[2c\	mai	.	.	.	.	.	.
=2	=2	=2	=2	=2	=2	=2	=2	=2	=2
1F\	mai	2c\]	.	1r	.	1r	.	1r	.
.	.	2F/	fron-	.	.	.	.	.	.
=3	=3	=3	=3	=3	=3	=3	=3	=3	=3
2C/	fron-	4G/	do-	1r	.	2r	.	1r	.
.	.	4A/	sa	.	.	.	.	.	.
4D\	do-	2B-\	pian-	.	.	2f\	T'a-	.	.
4E\	sa	.	.	.	.	.	.	.	.
=4	=4	=4	=4	=4	=4	=4	=4	=4	=4
1F\	pian-	1A/	ta	1r	.	2f\	mai	2cc\	T'a-
.	.	.	.	.	.	4c\	fron-	4cc\	mai
.	.	.	.	.	.	4d\	do-	4f/	fron-
=5	=5	=5	=5	=5	=5	=5	=5	=5	=5
1C/	ta	1r	.	2c\	T'a	4e\	sa	4g/	do-
.	.	.	.	.	.	2f\	pian-	4a/	sa
.	.	.	.	2c\	mai	.	.	2g/	pian-
.	.	.	.	.	.	4e\	.	.	.
=6	=6	=6	=6	=6	=6	=6	=6	=6	=6
1r	.	1r	.	2F/	fron-	4.f\	ta-	2a/	ta
.	.	.	.	.	.	8e\	.	.	.
.	.	.	.	4G/	do-	4d\	.	4r	.
.	.	.	.	4A/	sa	4c\	fron-	4f/	fron-
=7	=7	=7	=7	=7	=7	=7	=7	=7	=7
1r	.	1r	.	8B-/L	pian-	8d\L	do-	4g/	do-
.	.	.	.	8A/J	.	8e\J	sa	.	.
.	.	.	.	8A/L	.	2f\	pian-	4a/	sa
.	.	.	.	16G/L	.	.	.	.	.
.	.	.	.	16F/JJ	.	.	.	.	.
.	.	.	.	2G/	.	.	.	2b-\	pian-
.	.	.	.	.	.	4e\	.	.	.
=8	=8	=8	=8	=8	=8	=8	=8	=8	=8
2r	.	2r	.	1F/	ta	2f\	ta	2a/	ta
[2BB-/	Nel	[2d\	Nel	.	.	[2f\	Nel	[2b-\	Nel
=9	=9	=9	=9	=9	=9	=9	=9	=9	=9
2BB-/]	.	2d\]	.	1F/	Nel	2f\]	.	2b-\]	.
2BB-/	cui	2B-\	cui	.	.	2d\	cui	2b-\	cui
=10	=10	=10	=10	=10	=10	=10	=10	=10	=10
1BB-/	grem-	1B-\	grem-	2D/	cui	1d\	grem-	1f/	grem-
.	.	.	.	[2F/	grem-	.	.	.	.
=11	=11	=11	=11	=11	=11	=11	=11	=11	=11
2FF/	bo	2A/	bo	2F/]	.	2c\	bo	2f/	bo
2C/	non	2G/	non	2E/	bo	2c\	non	4g/	non
.	.	.	.	.	.	.	.	[4cc/	pio-
=12	=12	=12	=12	=12	=12	=12	=12	=12	=12
4.F\	pio-	1F/	pio-	4A/	non	2c\	pio-	8cc/L]	.
.	.	.	.	.	.	.	.	8b-/J	.
.	.	.	.	2c\	pio-	.	.	8a/L	.
8E\	.	.	.	.	.	.	.	8g/J	.
8D/L	.	.	.	.	.	2d\	ve	8f/L	.
8C/J	.	.	.	.	.	.	.	8e/J	.
4D\	.	.	.	4B-\	.	.	.	[4f/	.
=13	=13	=13	=13	=13	=13	=13	=13	=13	=13
1C/	ve	2G/	ve	2c\	ve	1r	.	4f/]	.
.	.	.	.	.	.	.	.	8e/L	.
.	.	.	.	.	.	.	.	8d/J	.
.	.	4r	.	4.c\	La	.	.	2e/	.
.	.	[4A/	La	.	.	.	.	.	.
.	.	.	.	8B-\	sa-	.	.	.	.
=14	=14	=14	=14	=14	=14	=14	=14	=14	=14
4.D\	La	8A/L]	.	2A/	et-	4r	.	2f/	ve
.	.	8G/J	sa-	.	.	.	.	.	.
.	.	4F/	et-	.	.	[4f\	La	.	.
8C/	sa-	.	.	.	.	.	.	.	.
2BB-/	et-	4D/	ta	2d\	ta	8f\L]	.	2r	.
.	.	.	.	.	.	8e\J	sa-	.	.
.	.	[4F/	di	.	.	4d\	et-	.	.
=15	=15	=15	=15	=15	=15	=15	=15	=15	=15
2AA/	ta	8F/L]	.	4r	.	2.c\	ta	4r	.
.	.	8E/J	.	.	.	.	.	.	.
.	.	4E/	.	[4A/	La	.	.	[4cc\	La
2FF/	di	2F/	Gio-	8A/L]	.	.	.	8cc\L]	.
.	.	.	.	8G/J	sa-	.	.	8b-\J	sa-
.	.	.	.	4F/	et-	4d\	di	4a/	et-
=16	=16	=16	=16	=16	=16	=16	=16	=16	=16
1C/	Gio-	4G/	ve	4E/	ta	4e\	Gio-	4g/	ta
.	.	4c\	di	4A/	di	2f\	.	4f/	di
.	.	2c\	Gio-	2G/	Gio-	.	.	2g/	Gio-
.	.	.	.	.	.	4e\	.	.	.
=17	=17	=17	=17	=17	=17	=17	=17	=17	=17
1FF/	ve	1c\	ve	2F/	ve	1f\	ve	1a/	ve
.	.	.	.	4r	.	.	.	.	.
.	.	.	.	[4c\	Men-	.	.	.	.
=18	=18	=18	=18	=18	=18	=18	=18	=18	=18
2F\	Men-	1r	.	4c\]	.	1r	.	2r	.
.	.	.	.	2A/	tre	.	.	.	.
2D\	tre	.	.	.	.	.	.	2f/	Men-
.	.	.	.	4d\	tue	.	.	.	.
=19	=19	=19	=19	=19	=19	=19	=19	=19	=19
2G\	tue	1r	.	2Bn\	ver-	1r	.	4d/	tre
.	.	.	.	.	.	.	.	4g/	tue
4E\	ver-	.	.	4c\	di	.	.	4g/	ver-
4F\	di	.	.	[4c\	fo-	.	.	4a/	di
=20	=20	=20	=20	=20	=20	=20	=20	=20	=20
2D\	fo-	1r	.	4c\]	.	1r	.	2f/	fo-
.	.	.	.	4B-\	.	.	.	.	.
2C/	glie	.	.	2c\	glie	.	.	2e/	glie
=21	=21	=21	=21	=21	=21	=21	=21	=21	=21
1r	.	2d\	Io	1r	.	2f\	Io	4r	.
.	.	.	.	.	.	.	.	2a/	Io
.	.	2c\	non	.	.	2e\	non	.	.
.	.	.	.	.	.	.	.	4g/	non
=22	=22	=22	=22	=22	=22	=22	=22	=22	=22
2r	.	2d\	vi-	2r	.	2f\	vi-	4b-\	vi-
.	.	.	.	.	.	.	.	2a/	di
2G\	Io	4c\	di	4r	.	4e\	di	.	.
.	.	4B-\	ne-	[4d\	Io	4d\	ne-	4g/	ne-
=23	=23	=23	=23	=23	=23	=23	=23	=23	=23
2F\	non	2A/	mi-	4d\]	.	2f\	mi-	2a/	mi-
.	.	.	.	4c\	non	.	.	.	.
2G\	vi-	2G/	che&agrave;	4e-\	vi-	2B-\	che&agrave;	2b-\	che&agrave;
.	.	.	.	[4d\	di	.	.	.	.
=24	=24	=24	=24	=24	=24	=24	=24	=24	=24
4F\	di	4A/	le	4d\]	.	2f\	le	2.a/	le
4E\	ne-	4G/	mie	4c\	ne-	.	.	.	.
2D\	mi-	2F/	vo-	2d\	mi-	2f\	mie	.	.
.	.	.	.	.	.	.	.	4bn\	mie
=25	=25	=25	=25	=25	=25	=25	=25	=25	=25
2C/	che&agrave;	4G/	glie	2G/	che&agrave;	4.e\	vo-	2cc\	vo-
.	.	4E/	&agrave;	.	.	.	.	.	.
.	.	.	.	.	.	8d\	.	.	.
4AA/	le	4F/	le	4A/	le	4c\	.	2f/	glie.
4BB-/	mie	4F/	mie	[4F/	mie	4d\	.	.	.
=26	=26	=26	=26	=26	=26	=26	=26	=26	=26
2GG/	vo-	2G/	vo-	4F/]	.	2B-\	.	1r	.
.	.	.	.	4E/	vo-	.	.	.	.
2FF/	glie.	2C/	glie.	2F/	glie.	2A/	glie.	.	.
=27	=27	=27	=27	=27	=27	=27	=27	=27	=27
2r	.	1r	.	2r	.	2r	.	2r	.
2C/	Ma	.	.	2G/	Ma	2c\	Ma	2e/	Ma
=28	=28	=28	=28	=28	=28	=28	=28	=28	=28
1GG/	poi	2r	.	2G/	poi	2Bn\	poi	2d/	poi
.	.	2G/	Ma	2Bn\	ch'al-	2d\	ch'al-	2g/	ch'al-
=29	=29	=29	=29	=29	=29	=29	=29	=29	=29
2C/	ch'al-	2G/	poi	4c\	trui	4e\	trui	4g/	trui
.	.	.	.	4c\	tu	4e\	tu	4g/	tu
4C/	trui	2G/	ch'al-	2c\	chia-	2e\	chia-	[2cc\	chia-
4C/	tu	.	.	.	.	.	.	.	.
=30	=30	=30	=30	=30	=30	=30	=30	=30	=30
1F\	chia-	4F/	trui	[1c\	mi	4f\	mi	2cc\]	.
.	.	4F/	tu	.	.	4f\	tu	.	.
.	.	2f\	chia-	.	.	2a\	chia-	2cc\	mi
=31	=31	=31	=31	=31	=31	=31	=31	=31	=31
2c\	mi	2e\	mi	1c\]	.	2g\	mi	2r	.
2F\	ch'al-	4r	.	.	.	2f\	ch'al-	2a/	ch'al-
.	.	4c\	ch'al-	.	.	.	.	.	.
=32	=32	=32	=32	=32	=32	=32	=32	=32	=32
4F\	trui	4c\	trui	1r	.	4f\	trui	4a/	trui
4A\	tu	4c\	tu	.	.	4f\	tu	4cc\	tu
2B-\	chia-	2d\	chia-	.	.	2f\	chia-	2b-\	chia-
=33	=33	=33	=33	=33	=33	=33	=33	=33	=33
1F\	mi	1c\	mi	2r	.	1f\	mi	1a/	mi
.	.	.	.	2F/	A	.	.	.	.
=34	=34	=34	=34	=34	=34	=34	=34	=34	=34
2BB-/	A	2B-\	A	2.F/	la	2d\	A	1r	.
2BB-/	la	4B-\	la	.	.	2d\	la	.	.
.	.	4F/	fres-	4B-\	fres-	.	.	.	.
=35	=35	=35	=35	=35	=35	=35	=35	=35	=35
4FF/	fres-	2.c\	caom-	4A/	caom-	4f\	fres-	1r	.
2C/	caom-	.	.	4G/	braa-	2e\	caom-	.	.
.	.	.	.	8A/L	ma-	.	.	.	.
.	.	.	.	8G/J	.	.	.	.	.
4GG/	braa-	4B-\	braa-	[4G/	.	4d\	braa-	.	.
=36	=36	=36	=36	=36	=36	=36	=36	=36	=36
1D\	ma-	1A/	ma-	4G/]	.	1d\	ma-	1r	.
.	.	.	.	8F/L	.	.	.	.	.
.	.	.	.	8E/J	.	.	.	.	.
.	.	.	.	2F#/	.	.	.	.	.
=37	=37	=37	=37	=37	=37	=37	=37	=37	=37
1GG/	ta	2B-\	ta	2G/	ta	2d\	ta	2r	.
.	.	2G/	A	4r	.	4r	.	2b-\	A
.	.	.	.	4B-\	A	4d\	A	.	.
=38	=38	=38	=38	=38	=38	=38	=38	=38	=38
1r	.	2F/	la	2c\	la	2.f\	la	2.a/	la
.	.	4D/	fres-	4d\	fres-	.	.	.	.
.	.	[4G/	caom-	4B-\	caom-	4d\	fres-	4g/	fres-
=39	=39	=39	=39	=39	=39	=39	=39	=39	=39
1r	.	4G/]	.	4d\	braa-	4g\	caom-	4b-\	caom-
.	.	4D/	braa-	2d\	ma-	4f\	braa-	4a/	braa-
.	.	2A/	ma-	.	.	2e\	ma-	[2a/	ma-
.	.	.	.	4c\	.	.	.	.	.
=40	=40	=40	=40	=40	=40	=40	=40	=40	=40
2r	.	2D/	ta	2d\	ta	1d\	ta	2a/]	.
2G\	E	2B-\	E	4r	.	.	.	2g/	ta
.	.	.	.	[4d\	E	.	.	.	.
=41	=41	=41	=41	=41	=41	=41	=41	=41	=41
4F\	per	4A/	per	4d\]	.	1r	.	1r	.
4E\	me	4G/	me	2c\	per	.	.	.	.
[2F\	sfron-	4A/	sfron-	.	.	.	.	.	.
.	.	4d\	dii	4B-\	me	.	.	.	.
=42	=42	=42	=42	=42	=42	=42	=42	=42	=42
4F\]	.	4.c\	ra-	4A/	sfron-	2r	.	1r	.
4E\	dii	.	.	4G/	dii	.	.	.	.
.	.	8G/	.	.	.	.	.	.	.
2D\	ra-	4B-\	.	2F/	ra-	2f\	E	.	.
.	.	4A/	mi	.	.	.	.	.	.
=43	=43	=43	=43	=43	=43	=43	=43	=43	=43
2C/	mi	4r	.	2G/	mi	2e\	per	4r	.
.	.	4c\	E	.	.	.	.	2g/	E
2r	.	2B-\	per	2r	.	2d\	me	.	.
.	.	.	.	.	.	.	.	[4f/	per
=44	=44	=44	=44	=44	=44	=44	=44	=44	=44
1r	.	1A/	me	1r	.	2.c\	sfron-	4f/]	.
.	.	.	.	.	.	.	.	4e/	me
.	.	.	.	.	.	.	.	4f/	sfron-
.	.	.	.	.	.	4c\	dii	4e/	dii
=45	=45	=45	=45	=45	=45	=45	=45	=45	=45
1r	.	2B-\	sfron-	1r	.	8B-\L	ra-	8d/L	ra-
.	.	.	.	.	.	8c\J	.	8e/J	.
.	.	.	.	.	.	8d\L	.	8f/L	.
.	.	.	.	.	.	8e\J	.	8g/J	.
.	.	2A/	dii	.	.	8f\L	.	8a/L	.
.	.	.	.	.	.	8g\J	.	8b-/J	.
.	.	.	.	.	.	[4f\	.	8cc/L	.
.	.	.	.	.	.	.	.	8a/J	.
=46	=46	=46	=46	=46	=46	=46	=46	=46	=46
1r	.	2G/	ra-	1r	.	4f\]	.	2b-\	.
.	.	.	.	.	.	4e\	.	.	.
.	.	2F/	mi	.	.	2f\	mi	2a/	mi
=47	=47	=47	=47	=47	=47	=47	=47	=47	=47
6BB-/	Co-	6F/	Co-	6d\	Co-	6f\	Co-	6b-\	Co-
6BB-/	si	6F/	si	6d\	si	6f\	si	6b-\	s&igrave;
6BB-/	fier-	6B-\	fier-	6d\	fier-	6f\	fier-	6b-\	fier-
3BB-/	o-	3F/	o-	3d\	o-	3f\	o-	3b-\	o-
6FF/	dio	6F/	dio	6c\	dio	6f\	dio	6a/	dio
=48	=48	=48	=48	=48	=48	=48	=48	=48	=48
4C/	t'ha	4G/	t'ha	4c\	t'ha	4e\	t'ha	4g/	t'ha
12BBn/	di-	12G/	di-	12d\	di-	12d\	di-	12g/	di-
6C/	ra-	6G/	ra-	6c\	ra-	6e\	ra-	6g/	ra-
6GG/	ri-	3G/	di-	6B-\	di-	6d\	di-	6g/	di-
3D\	ca-	.	.	6A/	ca-	3d\	ca-	3a/	ca-
.	.	6F/	ca-	6d\	.	.	.	.	.
=49	=49	=49	=49	=49	=49	=49	=49	=49	=49
2GG/	ta.	[1G/	ta.	2Bn\	ta.	2d\	ta.	1g/	ta.-
[2C/	Dal	.	.	2r	.	[2e\	Dal	.	.
=50	=50	=50	=50	=50	=50	=50	=50	=50	=50
2C/]	.	1G/]	.	2.c\	Dal	2e\]	.	1r	.
2E\	mio	.	.	.	.	2g\	mio	.	.
.	.	.	.	4B-\	mio	.	.	.	.
=51	=51	=51	=51	=51	=51	=51	=51	=51	=51
1F\	cor	2r	.	2A/	cor	1f\	cor	[1cc\	Dal
.	.	[2A/	Dal	[2c\	Dal	.	.	.	.
=52	=52	=52	=52	=52	=52	=52	=52	=52	=52
1r	.	2A/]	.	2c\]	.	2.f\	Dal	2cc\]	.
.	.	2B-\	mio	2d\	mio	.	.	2b-\	mio
.	.	.	.	.	.	4f\	mio	.	.
=53	=53	=53	=53	=53	=53	=53	=53	=53	=53
2r	.	2F/	cor	2c\	cor	2f\	cor	2a/	cor
[2C/	che	[2G/	che	[2c\	che	[2e\	che	[2g/	che
=54	=54	=54	=54	=54	=54	=54	=54	=54	=54
4C/]	.	4G/]	.	4c\]	.	4e\]	.	4g/]	.
4F\	gi&agrave;-	4F/	gia-	4c\	gia-	4f\	gia-	4a/	gia-
2BB-/	ma-	[2F/	ma-	2d\	ma-	2f\	mai	2b-\	mai
=55	=55	=55	=55	=55	=55	=55	=55	=55	=55
2EE/	i	2F/]	.	2c\	i	2f\	Non	2a/	Non
2r	.	2C/	i	4r	.	2e\	vi	2g/	vi
.	.	.	.	4c\	Non	.	.	.	.
=56	=56	=56	=56	=56	=56	=56	=56	=56	=56
1r	.	2F/	Non	4c\	vi	2.f\	rin-	4.a/	rin-
.	.	.	.	4d\	rin-	.	.	.	.
.	.	.	.	.	.	.	.	8b-\	ver-
.	.	4.A/	vi	[2c\	ver-	.	.	4cc\	di-
.	.	.	.	.	.	4f\	ver-	4a/	ra-
.	.	8B-\	rin-	.	.	.	.	.	.
=57	=57	=57	=57	=57	=57	=57	=57	=57	=57
1r	.	4c\	ver-	4c\]	.	4.e\	di-	4g/	.
.	.	4A/	di-	4c\	di-	.	.	2cc\	.
.	.	.	.	.	.	8f\	ra-	.	.
.	.	2G/	ra-	2d\	ra-	2g\	.	.	.
.	.	.	.	.	.	.	.	4b-\	.
=58	=58	=58	=58	=58	=58	=58	=58	=58	=58
2C/	Non	4G/	i	4c\	i	4e\	i	2cc\	i
.	.	4c\	Non	4G/	Non	4e\	Non	.	.
4.D\	vi	4.F/	vi	4B-\	vi	4f\	vi	2r	.
.	.	.	.	4A/	rin-	4d\	rin-	.	.
8E\	rin-	8G/	rin-	.	.	.	.	.	.
=59	=59	=59	=59	=59	=59	=59	=59	=59	=59
4F\	ver-	4.A/	ver-	4F/	ver-	8c\L	ver-	1r	.
.	.	.	.	.	.	8c\J	di-	.	.
4D\	di-	.	.	4F/	di-	2f\	ra-	.	.
.	.	8B-\	di-	.	.	.	.	.	.
2C/	ra-	2c\	ra-	2G/	ra-	.	.	.	.
.	.	.	.	.	.	4e\	.	.	.
=60	=60	=60	=60	=60	=60	=60	=60	=60	=60
2F\	i	1c\	i	2A/	i	2f\	i-	2r	.
[2C/	che	.	.	[2G/	che	[2e\	che	[2g/	che
=61	=61	=61	=61	=61	=61	=61	=61	=61	=61
2C/]	.	2.c\	che	2G/]	.	2e\]	.	2g/]	.
2FF/	gia-	.	.	2F/	gia-	2f\	gia-	2a/	gia-
.	.	4c\	gia-	.	.	.	.	.	.
=62	=62	=62	=62	=62	=62	=62	=62	=62	=62
1BB-/	ma-	1d\	ma-	[1F/	mai	1f\	mai	1b-\	ami
=63	=63	=63	=63	=63	=63	=63	=63	=63	=63
2FF/	i	2c\	i	2F/]	.	2f\	Non	2a/	Non
2r	.	4r	.	2C/	Non	2e\	vi	2g/	vi
.	.	4c\	Non	.	.	.	.	.	.
=64	=64	=64	=64	=64	=64	=64	=64	=64	=64
1r	.	4c\	vi	2F/	vi	2.f\	rin-	4.a/	rin-
.	.	4d\	rin-	.	.	.	.	.	.
.	.	.	.	.	.	.	.	8b-\	ver-
.	.	[2c\	ver-	4.A/	rin-	.	.	4cc\	di-
.	.	.	.	.	.	4f\	ver-	4a/	ra-
.	.	.	.	8B-\	ver-	.	.	.	.
=65	=65	=65	=65	=65	=65	=65	=65	=65	=65
1r	.	4c\]	.	4c\	di-	4.e\	di-	4g/	.
.	.	4c\	di-	4A/	ra-	.	.	2cc\	.
.	.	.	.	.	.	8f\	ra-	.	.
.	.	2d\	ra-	2G/	.	2g\	.	.	.
.	.	.	.	.	.	.	.	4b-\	.
=66	=66	=66	=66	=66	=66	=66	=66	=66	=66
1C/	Non	2c\	i	2G/	i	2e\	i	1cc\	i
.	.	4G/	Non	4r	.	2e\	Non	.	.
.	.	[4A/	vi-	4c\	Non	.	.	.	.
=67	=67	=67	=67	=67	=67	=67	=67	=67	=67
4.D\	rin-	4A/]	.	4A/	vi	4f\	vi	4r	.
.	.	4B-\	rin-	4F/	rin-	4d\	rin-	4f/	Non
8E\	ver-	.	.	.	.	.	.	.	.
4F\	di-	4A/	ver-	8F/L	ver-	4c\	ver-	4.a/	vi
.	.	.	.	8G/J	.	.	.	.	.
4D\	ra-	4F/	de-	8A/L	.	4d\	di-	.	.
.	.	.	.	8F/J	.	.	.	8b-\	rin-
=68	=68	=68	=68	=68	=68	=68	=68	=68	=68
1C/	.	4E/	ra-	4G/	.	4e\	ra-	4cc\	ver-
.	.	4A/	.	4c\	di-	2f\	.	4cc\	di-
.	.	2G/	.	2c\	ra-	.	.	2cc\	ra-
.	.	.	.	.	.	4e\	.	.	.
=69	=69	=69	=69	=69	=69	=69	=69	=69	=69
1FF/	i.	1F/	i.	1c\	i.	1f\	i.	1a/	i.
==	==	==	==	==	==	==	==	==	==
*-	*-	*-	*-	*-	*-	*-	*-	*-	*-
